frontend/public/svg/hand gestures/3-tap-scroll.svg

<svg width="153" height="157" viewBox="0 0 153 157" fill="none" xmlns="http://www.w3.org/2000/svg">
<g clip-path="url(#clip0)">
<path d="M39.6397 39.7222C40.0248 39.7171 40.407 39.655 40.7738 39.5377L40.8979 39.5003L40.9636 39.3894C41.8825 37.8595 41.5259 36.3499 41.1794 34.8902C41.1046 34.5771 41.0297 34.2641 40.9687 33.9523C40.2645 30.6492 40.7971 27.2027 42.4655 24.2662C44.1338 21.3298 46.8218 19.1078 50.0196 18.0217C53.722 16.7044 57.087 16.6368 60.309 17.813C61.7621 18.3433 62.7631 18.4115 63.5547 18.0348C64.3764 17.6443 64.9671 16.7878 65.5289 15.1633C65.8373 14.1356 66.302 13.1616 66.9072 12.2754C68.403 10.2195 70.3589 8.54121 72.618 7.3745C74.8771 6.20777 77.3771 5.58479 79.9197 5.55518C85.8491 5.36221 89.5331 7.72111 91.8605 13.1996C93.0045 15.8945 94.2417 16.5574 96.9504 15.9306C98.8885 15.4823 100.486 15.2086 101.939 16.0619L102.648 16.4773C105.029 17.7679 107.28 19.2861 109.368 21.0106C110.566 22.0501 111.459 23.3963 111.95 24.9046C112.441 26.4128 112.511 28.0263 112.155 29.5719L112.105 29.839C111.88 30.6671 111.84 31.5344 111.988 32.3797C112.215 33.3905 112.817 34.2782 113.671 34.8653C113.935 35.0061 114.227 35.0904 114.525 35.113C114.824 35.1356 115.125 35.0959 115.408 34.9965C115.748 34.8711 116.059 34.6786 116.323 34.4306C116.587 34.1826 116.799 33.884 116.945 33.5526C117.546 32.3158 117.938 30.9884 118.106 29.6238C118.655 24.041 116.662 19.3468 112.193 15.672C106.948 11.3618 102.057 9.55164 96.806 9.98745C94.5639 5.26179 90.7126 2.35946 85.0411 1.12686C84.8784 1.06742 84.7281 0.977175 84.5988 0.861042C84.5049 0.788845 84.4104 0.717974 84.3139 0.656278L84.2312 0.60376H76.0434L75.9121 0.63068C75.2197 0.923407 74.522 1.20628 73.825 1.48916C72.2931 2.11137 70.7087 2.75458 69.1985 3.49821C65.8938 5.12593 63.1654 7.79265 60.6241 11.8843C59.9507 11.8843 59.3015 11.8797 58.6682 11.8764C57.215 11.8685 55.8407 11.8619 54.4677 11.8908C48.134 12.0273 43.1176 14.4354 39.5576 19.0488C35.4109 24.4216 34.4383 30.4035 36.6698 36.8277C37.019 37.8155 37.6805 39.7228 39.6397 39.7222Z" fill="black"/>
<path d="M108.246 73.1372C107.883 73.3085 107.511 73.4601 107.131 73.5914L106.848 73.6957L106.917 72.2518C106.982 70.9319 107.04 69.7197 107.089 68.5061C107.141 67.2006 107.198 65.8952 107.257 64.5896C107.642 55.9339 108.04 46.982 106.831 38.1845C106.184 33.4726 105.379 28.9183 102.684 24.996C101.959 23.9008 101.012 22.9713 99.9024 22.2685C98.7932 21.5656 97.5481 21.1053 96.2486 20.9178C94.9491 20.7303 93.6246 20.8198 92.3618 21.1805C91.099 21.5412 89.9268 22.1649 88.9226 23.0106C88.4631 23.388 88.0168 23.789 87.6099 24.1585L87.413 24.3364C87.0408 23.6577 86.6798 22.9857 86.3228 22.3202C85.3678 20.5408 84.466 18.86 83.4389 17.2178C81.7416 14.5032 79.0046 13.3322 75.5274 13.8271C74.0152 14.0121 72.5679 14.5526 71.3045 15.4044C70.041 16.2563 68.9975 17.3952 68.2591 18.728C67.2089 20.7076 66.2701 22.744 65.4467 24.828C65.1572 25.5231 64.8684 26.2162 64.5718 26.9034C64.4838 26.7616 64.3938 26.6146 64.3019 26.4649C63.7605 25.5517 63.1734 24.6663 62.543 23.812C59.9242 20.3787 56.4877 19.6174 52.6002 21.6133C49.6841 23.1097 47.9087 25.4161 47.465 28.2829C47.1191 30.5224 46.9538 32.8203 46.7949 35.0433C46.6938 36.4485 46.5894 37.901 46.4404 39.3213C45.5334 47.9679 45.746 56.7562 45.9507 65.2558C46.0466 69.2307 46.1476 73.3413 46.1286 77.3804C46.1207 79.3534 46.3144 81.3565 46.5015 83.2927C46.5783 84.0803 46.6543 84.8758 46.7186 85.67H46.6839L46.5986 85.6752C46.4017 85.5184 46.212 85.3556 46.021 85.1922C45.7237 84.9395 45.4173 84.6776 45.0924 84.44C38.4089 79.5562 31.2782 77.8274 23.8971 79.3015C22.2776 79.5818 20.7566 80.2716 19.4789 81.306C18.201 82.3397 17.209 83.6832 16.5968 85.2086C15.9959 86.8356 15.8147 88.588 16.0701 90.3031C16.3254 92.0187 17.009 93.6425 18.0577 95.0241C19.1269 96.3899 20.3408 97.6363 21.6781 98.7416L22.1119 99.1288C26.9979 103.378 31.0601 108.491 34.0953 114.211C38.4022 122.494 42.9323 130.558 48.4088 140.118C49.5652 142.096 51.1002 143.827 52.9262 145.212C62.409 152.399 71.9995 155.949 82.029 155.949C85.0475 155.943 88.0575 155.635 91.015 155.03C104.772 152.25 114.145 145.219 119.671 133.539C121.969 128.758 123.605 123.687 124.537 118.465C126.052 109.844 127.419 100.547 127.163 90.9686C127.129 86.8744 126.309 82.8254 124.746 79.041C124.125 77.5373 123.199 76.178 122.029 75.0478C120.858 73.9176 119.467 73.0407 117.943 72.4723C116.367 71.9105 114.694 71.6801 113.025 71.7943C111.357 71.9085 109.73 72.366 108.246 73.1372ZM52.6008 93.5664C52.4696 85.7559 52.2969 77.4861 52.0941 68.995C52.0521 67.2229 51.9752 65.4277 51.901 63.6884C51.7632 60.4665 51.6215 57.1343 51.695 53.8677C51.8643 46.354 52.316 38.7955 52.7643 31.6972C53.0005 27.9561 53.5788 27.0667 56.8335 25.6747C58.9443 27.0726 60.2511 29.3502 60.8247 32.6319C61.6934 37.585 62.3048 42.5799 62.6566 47.5963C63.0911 53.8552 63.4211 60.2283 63.7414 66.392C63.9278 69.9815 64.1136 73.571 64.3204 77.156C64.3776 77.9882 64.6247 78.7961 65.0424 79.5188C65.3619 80.0799 65.8696 80.5092 66.4758 80.7317C67.0816 80.9535 67.7471 80.9542 68.3536 80.733C68.9285 80.6195 69.4431 80.3018 69.8015 79.8384C70.1605 79.375 70.3384 78.7968 70.3036 78.212C70.2977 77.3588 70.3187 76.5055 70.3397 75.6477C70.4184 73.9104 70.3876 72.1698 70.2458 70.4364C69.3072 61.3788 69.7752 52.1671 70.2274 43.2606L70.3285 41.2562C70.5254 37.2525 70.8674 33.2488 71.1726 29.8588C71.4771 26.4819 72.5003 23.8114 74.3 21.6927C75.2602 20.5625 76.0275 20.0426 76.6714 20.1096C77.3152 20.1765 77.9735 20.8434 78.7185 22.2099C81.2014 26.7577 81.8321 31.8029 82.3054 37.0038C83.2794 47.7021 83.2859 59.0974 82.3264 73.9557C82.2699 74.8306 82.1669 75.7225 82.0678 76.5849C81.9404 77.6955 81.8052 78.8441 81.7704 79.9835C81.7212 81.4648 82.0986 82.5274 82.8862 83.1418C83.6738 83.7561 84.8316 83.8552 86.246 83.445C87.2489 83.1929 88.1448 82.6265 88.8018 81.8278C89.4588 81.029 89.8421 80.0406 89.8959 79.0081L90.0114 77.7703C90.3508 74.7144 90.5345 71.6427 90.5614 68.5684C90.4879 60.091 90.2398 51.4754 90.0003 43.1431L89.9766 42.3201C89.9517 41.4669 89.8697 40.5991 89.7896 39.7603C89.5612 37.3542 89.3452 35.0827 90.3429 32.8446L90.6382 32.1738C91.1469 30.8694 91.8078 29.6295 92.6072 28.4799C92.8842 28.0552 93.2695 27.7115 93.7224 27.4836C94.1752 27.2557 94.6813 27.1517 95.1873 27.1823C95.6809 27.2755 96.1403 27.4978 96.5197 27.8267C96.899 28.1555 97.1845 28.5791 97.3467 29.0542C98.1717 31.1129 98.8018 33.2444 99.2297 35.4206C100.823 42.6029 100.573 50.0308 100.332 57.2111L100.324 57.4644C100.118 63.5926 100.017 69.826 99.9195 75.8538C99.8854 77.9101 99.8506 79.9671 99.8151 82.0234C99.7856 83.653 99.9247 85.3215 101.932 86.2416C104.655 87.4887 105.879 87.148 107.392 84.7248C107.693 84.2424 107.977 83.7489 108.262 83.2553C108.642 82.595 109.035 81.9118 109.462 81.2738C110.954 79.0515 112.433 77.6101 114.808 77.8044C117.576 78.0302 118.489 80.3543 119.371 82.6022C121.241 87.5103 121.886 92.8011 121.249 98.015C120.442 105.497 119.274 112.806 118.237 118.97C117.31 124.483 114.927 130.013 111.149 135.401C107.647 140.401 102.415 143.925 95.1551 146.171C82.2378 150.168 70.1309 148.009 58.1416 139.576C56.9605 138.791 55.9279 137.804 55.0916 136.659C53.0467 133.725 51.1548 130.688 49.4234 127.559C46.7869 122.665 44.1288 117.421 41.5238 111.971C37.5247 103.607 32.4072 97.0187 25.8786 91.8297C24.7745 90.9463 23.846 89.864 23.1411 88.6386C22.942 88.3281 22.8114 87.9783 22.7579 87.6134C22.7046 87.2478 22.7294 86.8757 22.8312 86.5212C22.9924 86.1176 23.2372 85.7527 23.5494 85.4501C23.8616 85.1475 24.2342 84.9145 24.6427 84.7662C25.9319 84.1939 27.3277 83.9005 28.7382 83.9064C29.5024 83.909 30.2649 83.9838 31.0152 84.1282C36.7543 85.2118 40.5976 87.3482 43.1016 90.8531C43.983 92.2419 44.6629 93.7488 45.1205 95.3286C45.2617 95.7382 45.402 96.1471 45.5491 96.5488C46.1102 98.0885 46.8965 99.5141 48.8308 99.518H48.84C50.5366 99.518 51.7666 98.4626 52.2148 96.6203C52.4726 95.6227 52.6023 94.5968 52.6008 93.5664Z" fill="black"/>
<path d="M15.2261 46.0329C15.872 46.0104 16.5019 45.8255 17.0574 45.4952C17.613 45.165 18.0763 44.7 18.4047 44.1433L18.5597 43.9215L14.168 39.1361C15.121 39.1991 16.0559 39.2637 16.9726 39.3298C19.7864 39.5267 22.4432 39.715 25.1177 39.7839C27.0306 39.795 28.9387 39.5932 30.8069 39.1821C31.1831 39.1175 31.5416 38.9743 31.859 38.7619C32.1763 38.5496 32.4452 38.2727 32.6485 37.9495C32.7906 37.7029 32.8766 37.428 32.9002 37.1443C32.9238 36.8607 32.8844 36.5754 32.785 36.3086C32.5534 35.8332 32.224 35.4121 31.8184 35.0729C31.4129 34.7335 30.9402 34.4837 30.4314 34.3396C29.4593 34.1151 28.4595 34.0351 27.4641 34.102C27.1981 34.1069 26.934 34.1097 26.6719 34.1105C23.3095 34.0981 19.9472 34.0995 16.3091 34.1014H12.7707C12.9945 33.8632 13.1986 33.6419 13.3889 33.4385C14.0354 32.744 14.5047 32.2419 15.0094 31.7694C15.7832 31.0474 17.2233 29.7112 16.0649 28.1714C15.2431 27.0779 13.8989 27.0353 12.2817 28.0493C11.9443 28.2607 11.6096 28.4772 11.2755 28.6931L10.8674 28.9557C10.1205 29.437 9.37534 29.9207 8.6319 30.4069C6.97924 31.4853 5.27004 32.5997 3.55634 33.636C2.12946 34.4991 1.30245 35.7364 1.28735 37.0261C1.30991 37.6626 1.49861 38.2822 1.83457 38.8232C2.17053 39.3644 2.6422 39.8083 3.20269 40.1108C6.43893 42.1305 9.7994 43.9439 13.2643 45.54C13.8734 45.848 14.5436 46.0164 15.2261 46.0329Z" fill="black"/>
<path d="M123.877 37.6036L124.122 37.7454C124.471 37.9054 124.857 37.9662 125.238 37.9213C125.36 37.9213 125.482 37.9161 125.598 37.9213C129.864 38.1116 134.125 38.3 138.546 38.4949L141.771 38.6374C141.64 38.8382 141.508 39.0312 141.377 39.2169C140.873 39.862 140.487 40.5919 140.238 41.3723C140 42.3568 139.985 44.0252 140.697 44.6691C141.26 45.0726 141.942 45.2743 142.634 45.2414C143.149 45.2626 143.659 45.1402 144.108 44.8877C147.421 42.6493 150.034 39.5201 151.644 35.8611C152.024 35.036 151.798 33.2652 151.084 32.7106C148.178 30.4457 145.152 28.3391 142.018 26.4C141.547 26.2038 141.021 26.183 140.536 26.3415C139.95 26.447 139.42 26.7565 139.04 27.2151C138.594 27.9804 139.07 29.4362 139.584 30.1929C140.11 30.8781 140.733 31.4835 141.432 31.99C141.582 32.1114 141.737 32.2368 141.896 32.3687C140.806 32.4035 139.746 32.4343 138.706 32.4671C135.628 32.5603 132.721 32.6489 129.824 32.7835C127.809 32.8601 125.8 33.0602 123.808 33.3827C123.482 33.4313 123.169 33.551 122.893 33.7333C122.618 33.9157 122.385 34.1562 122.213 34.4381C122.076 34.6842 121.995 34.9581 121.979 35.2396C121.961 35.521 122.009 35.8026 122.116 36.0632C122.387 36.7504 123.179 37.2039 123.877 37.6036Z" fill="black"/>
</g>
<defs>
<clipPath id="clip0">
<rect width="151.614" height="156.208" fill="white" transform="translate(0.662842 0.10376)"/>
</clipPath>
</defs>
</svg>

<svg xmlns="http://www.w3.org/2000/svg" width="153" height="157" fill="none" viewBox="0 0 153 157"><g fill="#000" clip-path="url(#a)"><path d="M39.64 39.722a3.9 3.9 0 0 0 1.134-.184l.124-.038.066-.11c.919-1.53.562-3.04.215-4.5-.074-.313-.15-.626-.21-.938a13.79 13.79 0 0 1 9.05-15.93c3.703-1.318 7.068-1.385 10.29-.209 1.453.53 2.454.599 3.246.222.821-.39 1.412-1.247 1.974-2.872a10.4 10.4 0 0 1 1.378-2.888 16.33 16.33 0 0 1 13.013-6.72c5.93-.193 9.613 2.166 11.94 7.645 1.144 2.695 2.382 3.357 5.09 2.73 1.938-.448 3.536-.721 4.989.132l.709.415a42 42 0 0 1 6.72 4.534 8.74 8.74 0 0 1 2.787 8.56l-.05.268a5.85 5.85 0 0 0-.117 2.54 4.1 4.1 0 0 0 1.683 2.486 2.17 2.17 0 0 0 1.737.131 2.7 2.7 0 0 0 1.537-1.443 12.5 12.5 0 0 0 1.161-3.93c.549-5.582-1.444-10.276-5.913-13.951-5.245-4.31-10.136-6.12-15.387-5.685-2.242-4.725-6.093-7.628-11.765-8.86A1.4 1.4 0 0 1 84.6.86a4 4 0 0 0-.285-.205L84.23.604h-8.188l-.13.027c-.693.292-1.391.575-2.088.858-1.532.622-3.116 1.266-4.627 2.01-3.304 1.627-6.033 4.294-8.574 8.385q-1.008-.001-1.956-.008a159 159 0 0 0-4.2.015c-6.334.136-11.35 2.544-14.91 7.158-4.147 5.373-5.12 11.355-2.888 17.779.349.987 1.01 2.895 2.97 2.894"/><path d="M108.246 73.137q-.545.257-1.115.454l-.283.105.069-1.444c.065-1.32.123-2.532.172-3.746q.079-1.957.168-3.916c.385-8.656.783-17.608-.426-26.406-.647-4.711-1.452-9.266-4.147-13.188a9.31 9.31 0 0 0-13.761-1.985c-.46.377-.906.778-1.313 1.148l-.197.177q-.556-1.017-1.09-2.016c-.955-1.78-1.857-3.46-2.884-5.102-1.697-2.715-4.434-3.886-7.912-3.39a9.65 9.65 0 0 0-7.268 4.9 60 60 0 0 0-2.812 6.1c-.29.695-.579 1.388-.875 2.075l-.27-.438a32 32 0 0 0-1.759-2.653c-2.619-3.433-6.055-4.195-9.943-2.199-2.916 1.497-4.691 3.803-5.135 6.67-.346 2.24-.511 4.537-.67 6.76a132 132 0 0 1-.355 4.278c-.907 8.647-.694 17.435-.49 25.935.097 3.975.198 8.085.179 12.124-.008 1.973.185 3.977.373 5.913.076.787.152 1.583.217 2.377h-.035l-.085.005c-.197-.157-.387-.32-.578-.483-.297-.252-.604-.514-.929-.752-6.683-4.884-13.814-6.613-21.195-5.138a9.63 9.63 0 0 0-7.3 5.907 10.32 10.32 0 0 0 1.46 9.815 24 24 0 0 0 3.621 3.718l.434.387a52.8 52.8 0 0 1 11.983 15.082c4.307 8.283 8.837 16.347 14.314 25.907a17.4 17.4 0 0 0 4.517 5.094C62.41 152.399 72 155.949 82.03 155.949a45.3 45.3 0 0 0 8.986-.919c13.757-2.78 23.13-9.811 28.656-21.491a58.5 58.5 0 0 0 4.866-15.074c1.515-8.621 2.882-17.918 2.626-27.496a31.9 31.9 0 0 0-2.417-11.928 11.84 11.84 0 0 0-6.803-6.569 12.17 12.17 0 0 0-9.697.665m-55.645 20.43c-.131-7.811-.304-16.08-.507-24.572-.042-1.772-.119-3.567-.193-5.307-.138-3.221-.28-6.554-.206-9.82.17-7.514.621-15.073 1.07-22.17.236-3.742.814-4.631 4.069-6.023 2.11 1.398 3.417 3.675 3.99 6.957a146 146 0 0 1 1.833 14.964c.434 6.26.764 12.632 1.084 18.796.187 3.59.373 7.179.58 10.764a5.5 5.5 0 0 0 .721 2.363 2.73 2.73 0 0 0 3.312 1.214 2.424 2.424 0 0 0 1.95-2.521c-.006-.853.015-1.707.036-2.564a41 41 0 0 0-.094-5.212c-.939-9.057-.47-18.269-.019-27.175l.102-2.005c.196-4.004.538-8.007.844-11.397.304-3.377 1.327-6.048 3.127-8.166.96-1.13 1.728-1.65 2.371-1.583.644.067 1.302.733 2.047 2.1 2.483 4.548 3.114 9.593 3.587 14.794.974 10.698.98 22.093.021 36.952-.056.875-.16 1.766-.258 2.629-.128 1.11-.263 2.26-.298 3.399-.049 1.48.329 2.543 1.116 3.158s1.946.713 3.36.303a4.835 4.835 0 0 0 3.65-4.437l.115-1.238c.34-3.056.523-6.127.55-9.202-.073-8.477-.321-17.093-.56-25.425l-.024-.823c-.025-.853-.107-1.72-.187-2.56-.229-2.406-.445-4.677.553-6.915l.295-.671a17.8 17.8 0 0 1 1.97-3.694 2.87 2.87 0 0 1 2.58-1.298 2.84 2.84 0 0 1 2.159 1.872 35.6 35.6 0 0 1 1.883 6.367c1.593 7.182 1.343 14.61 1.102 21.79l-.008.253c-.206 6.129-.307 12.362-.404 18.39l-.105 6.17c-.03 1.629.11 3.297 2.117 4.218 2.723 1.247 3.947.906 5.46-1.517.301-.483.585-.976.87-1.47.38-.66.773-1.343 1.2-1.981 1.492-2.222 2.971-3.664 5.346-3.47 2.768.226 3.681 2.55 4.563 4.798a32.3 32.3 0 0 1 1.878 15.413c-.807 7.482-1.975 14.791-3.012 20.955-.927 5.513-3.31 11.043-7.088 16.431-3.502 5-8.734 8.524-15.994 10.77-12.917 3.997-25.024 1.838-37.013-6.595a12 12 0 0 1-3.05-2.917 104 104 0 0 1-5.669-9.1 364 364 0 0 1-7.9-15.588c-3.998-8.364-9.116-14.952-15.644-20.141a11.3 11.3 0 0 1-2.738-3.191 2.6 2.6 0 0 1-.31-2.118 3.1 3.1 0 0 1 1.812-1.755 10 10 0 0 1 4.095-.86 12.3 12.3 0 0 1 2.277.222c5.74 1.084 9.583 3.22 12.087 6.725a17.4 17.4 0 0 1 2.019 4.476q.209.616.428 1.22c.561 1.54 1.348 2.965 3.282 2.969h.009c1.697 0 2.927-1.055 3.375-2.898a12 12 0 0 0 .386-3.054M15.226 46.033a3.85 3.85 0 0 0 3.179-1.89l.155-.221-4.392-4.786q1.43.095 2.805.194c2.813.197 5.47.385 8.145.454 1.913.011 3.82-.19 5.689-.602a2.72 2.72 0 0 0 1.842-1.233 1.93 1.93 0 0 0 .136-1.64 3.75 3.75 0 0 0-2.354-1.97 10.2 10.2 0 0 0-2.967-.237q-.399.008-.792.009a2461 2461 0 0 0-10.363-.01h-3.538l.618-.663c.646-.694 1.116-1.196 1.62-1.669.774-.722 2.214-2.058 1.056-3.598-.822-1.093-2.166-1.136-3.783-.122q-.506.319-1.007.644l-.408.263q-1.12.722-2.235 1.45c-1.653 1.08-3.362 2.194-5.076 3.23-1.427.863-2.254 2.1-2.269 3.39a3.65 3.65 0 0 0 1.916 3.085 91 91 0 0 0 10.061 5.429c.61.308 1.28.476 1.962.493m108.651-8.429.245.141c.349.16.735.221 1.116.176.122 0 .244-.005.36 0l12.948.574 3.225.142q-.197.301-.394.58a6.9 6.9 0 0 0-1.139 2.155c-.238.985-.253 2.653.459 3.297a3.07 3.07 0 0 0 1.937.572 2.77 2.77 0 0 0 1.474-.353 21.2 21.2 0 0 0 7.536-9.027c.38-.825.154-2.596-.56-3.15a102 102 0 0 0-9.066-6.311 2.13 2.13 0 0 0-1.482-.058 2.52 2.52 0 0 0-1.496.873c-.446.765.03 2.221.544 2.978a9 9 0 0 0 1.848 1.797q.225.181.464.379c-1.09.035-2.15.065-3.19.098a551 551 0 0 0-8.882.316 49 49 0 0 0-6.016.6 2.27 2.27 0 0 0-1.595 1.055 1.87 1.87 0 0 0-.097 1.625c.271.687 1.063 1.14 1.761 1.54"/></g><defs><clipPath id="a"><path fill="#fff" d="M.663.104h151.614v156.208H.663z"/></clipPath></defs></svg>
